X: 21
T: Ba'aviv
C: Cheryl Aznavor 1970
O: Israel
M: 2/4
L: 1/8
Q: 1/4=120
K: Cm
%%MIDI program 70
%%MIDI bassprog 25
%%MIDI bassvol 70
%%MIDI gchord zf
P:A
"a"c2 BA |"c" B2 AG |"f"F2 EF  |"c"GEC2 |
"f" z2 AF|"c"G2 FE  |"g"DF ED  |"c" C4  |z4|
P:B
"f" CE F2|"g" FD GF |"c" ED ED |"g" C4  |
"f" FG A2|"f" AF B>A|"g" GF G2-|"c" G2z2|
"a"c2 BA |"c" B2 AG |"f"F2 EF  |"c"GEC2 |
"f" z2 AF|"c"G2 FE  |"g"DF ED  |"c" C4  |



